svg/m/XK.svg

<svg fill="none" height="15" viewBox="0 0 20 15" width="20" xmlns="http://www.w3.org/2000/svg"><path clip-rule="evenodd" d="m0 0h20v15h-20z" fill="#2e42a5" fill-rule="evenodd"/><path d="m9.59026 11.9852c.07177-.0727.18957 0 .18957 0s.34017-.2429.34017-.2827c0-.0397-.16403-.5213-.0259-.6882.1381-.1668 1.2588-.7519 1.3631-.7188.1042.0332.3637.546.4482.546s.3292.0114.3292-.0697-.0802-.4136.1757-.5721.4398-.33838.5809-.1902c.1411.1482.2021.0531.2021.0531s.0414-.20762-.0361-.26909c-.0775-.06148-.2374-.19758-.077-.28309.1605-.08552.2921-.06193.2921-.06193l.1091-.16808-.1091-.21305.5295-.60672-.0771-.14155s.1195-.07819.1395-.20225c.0199-.12407.0962-.20763-.0624-.27784-.1587-.07022-.2127.04281-.2664.07021s-.0738.10321-.0738.10321l-.0802-.17342s-.5144-.20108-.6964-.20108c-.1821 0-.3274.00295-.2439-.2536.0834-.25655.1854-.31572.1283-.3922-.057-.07647-.0834.07648-.2591-.04563-.1757-.1221-.5271-.16078-.5271-.35835 0-.19758-.3958-.89055-.552-.89055-.1561 0-.1893.05898-.1893.05898s-.7895-.19779-.7895-.26835c0-.07055.1252-.22411.1252-.22411s-.1373-.30827-.2664-.25673c-.129.05154-.37076.29308-.49585.29308s-.33529.01673-.33529.01673.46038.45686.33529.65719-.22538.34541-.22538.34541l-.15645-.00737-.33215.26023.14361.30078s-.23045.26319-.32171.26319c-.09127 0-.22185-.07815-.37007 0-.14821.07814-.30032.05913-.30032.05913s-.21614.13866-.21614.18857c0 .0499-.05135.16071-.05135.16071h-.22727l-.29582-.13122s-.40588.15628-.35706.32584.53276.30152.53276.30152l-.1388.20052s.06499.39514.20057.46517c.13559.07004.38751.50204.38751.50204l-.10189.123s.1757.07015.1757.21169c0 .14155.2102.17398.2102.17398l.18191-.04463.02348.08887.14521.05013.04573.06856s.72688.746.6659.8913c-.06097.1452.1043.4467.1043.4467l.10189.3528-.20619.2014s.18497.2853.25674.2125z" fill="#e8ab02"/><g clip-rule="evenodd" fill="#f7fcff" fill-rule="evenodd"><path d="m15.7794 4.59699-.5503.31219.1572-.63449-.5272-.46625h.6886l.2309-.60043.2708.60043h.5869l-.4612.46625.2218.63449z"/><path d="m13.5334 3.94025-.5503.31219.1572-.63449-.5271-.46625h.6885l.2309-.60043.2708.60043h.5869l-.4611.46625.2217.63449z"/><path d="m11.0585 3.44977-.5503.3122.1572-.6345-.5272-.46625h.6886l.2309-.60043.2708.60043h.5869l-.4612.46625.2218.6345z"/><path d="m3.95733 4.59699-.5503.31219.15717-.63449-.52715-.46625h.68853l.23092-.60043.27078.60043h.58695l-.46118.46625.22175.63449z"/><path d="m6.2033 3.94025-.5503.31219.15717-.63449-.52715-.46625h.68853l.23092-.60043.27078.60043h.58695l-.46118.46625.22175.63449z"/><path d="m8.67529 3.44977-.55031.3122.15717-.6345-.52715-.46625h.68853l.23093-.60043.27078.60043h.58695l-.46118.46625.22175.6345z"/></g></svg>

<svg width="20" height="15" viewBox="0 0 20 15" fill="none" xmlns="http://www.w3.org/2000/svg">
<mask id="mask0" mask-type="alpha" maskUnits="userSpaceOnUse" x="0" y="0" width="20" height="15">
<rect width="20" height="15" fill="white"/>
</mask>
<g mask="url(#mask0)">
</g>
<path fill-rule="evenodd" clip-rule="evenodd" d="M0 0H20V15H0V0Z" fill="#2E42A5"/>
<path d="M9.59026 11.9852C9.66203 11.9125 9.77983 11.9852 9.77983 11.9852C9.77983 11.9852 10.12 11.7423 10.12 11.7025C10.12 11.6628 9.95597 11.1812 10.0941 11.0143C10.2322 10.8475 11.3529 10.2624 11.4572 10.2955C11.5614 10.3287 11.8209 10.8415 11.9054 10.8415C11.9899 10.8415 12.2346 10.8529 12.2346 10.7718C12.2346 10.6907 12.1544 10.3582 12.4103 10.1997C12.6662 10.0412 12.8501 9.86132 12.9912 10.0095C13.1323 10.1577 13.1933 10.0626 13.1933 10.0626C13.1933 10.0626 13.2347 9.85498 13.1572 9.79351C13.0797 9.73203 12.9198 9.59593 13.0802 9.51042C13.2407 9.4249 13.3723 9.44849 13.3723 9.44849L13.4814 9.28041L13.3723 9.06736L13.9018 8.46064L13.8247 8.31909C13.8247 8.31909 13.9442 8.2409 13.9642 8.11684C13.9841 7.99277 14.0604 7.90921 13.9018 7.839C13.7431 7.76878 13.6891 7.88181 13.6354 7.90921C13.5817 7.93661 13.5616 8.01242 13.5616 8.01242L13.4814 7.839C13.4814 7.839 12.967 7.63792 12.785 7.63792C12.6029 7.63792 12.4576 7.64087 12.5411 7.38432C12.6245 7.12777 12.7265 7.0686 12.6694 6.99212C12.6124 6.91565 12.586 7.0686 12.4103 6.94649C12.2346 6.82439 11.8832 6.78571 11.8832 6.58814C11.8832 6.39056 11.4874 5.69759 11.3312 5.69759C11.1751 5.69759 11.1419 5.75657 11.1419 5.75657C11.1419 5.75657 10.3524 5.55878 10.3524 5.48822C10.3524 5.41767 10.4776 5.26411 10.4776 5.26411C10.4776 5.26411 10.3403 4.95584 10.2112 5.00738C10.0822 5.05892 9.84044 5.30046 9.71535 5.30046C9.59026 5.30046 9.38006 5.31719 9.38006 5.31719C9.38006 5.31719 9.84044 5.77405 9.71535 5.97438C9.59026 6.17471 9.48997 6.31979 9.48997 6.31979L9.33352 6.31242L9.00137 6.57265L9.14498 6.87343C9.14498 6.87343 8.91453 7.13662 8.82327 7.13662C8.732 7.13662 8.60142 7.05847 8.4532 7.13662C8.30499 7.21476 8.15288 7.19575 8.15288 7.19575C8.15288 7.19575 7.93674 7.33441 7.93674 7.38432C7.93674 7.43422 7.88539 7.54503 7.88539 7.54503H7.65812L7.3623 7.41381C7.3623 7.41381 6.95642 7.57009 7.00524 7.73965C7.05406 7.90921 7.538 8.04117 7.538 8.04117L7.3992 8.24169C7.3992 8.24169 7.46419 8.63683 7.59977 8.70686C7.73536 8.7769 7.98728 9.2089 7.98728 9.2089L7.88539 9.3319C7.88539 9.3319 8.06109 9.40205 8.06109 9.54359C8.06109 9.68514 8.27129 9.71757 8.27129 9.71757L8.4532 9.67294L8.47668 9.76181L8.62189 9.81194L8.66762 9.8805C8.66762 9.8805 9.3945 10.6265 9.33352 10.7718C9.27255 10.917 9.43782 11.2185 9.43782 11.2185L9.53971 11.5713L9.33352 11.7727C9.33352 11.7727 9.51849 12.058 9.59026 11.9852Z" fill="#E8AB02"/>
<path fill-rule="evenodd" clip-rule="evenodd" d="M15.7794 4.59699L15.2291 4.90918L15.3863 4.27469L14.8591 3.80844H15.5477L15.7786 3.20801L16.0494 3.80844H16.6363L16.1751 4.27469L16.3969 4.90918L15.7794 4.59699Z" fill="#F7FCFF"/>
<path fill-rule="evenodd" clip-rule="evenodd" d="M13.5334 3.94025L12.9831 4.25244L13.1403 3.61795L12.6132 3.1517H13.3017L13.5326 2.55127L13.8034 3.1517H14.3903L13.9292 3.61795L14.1509 4.25244L13.5334 3.94025Z" fill="#F7FCFF"/>
<path fill-rule="evenodd" clip-rule="evenodd" d="M11.0585 3.44977L10.5082 3.76197L10.6654 3.12747L10.1382 2.66122H10.8268L11.0577 2.06079L11.3285 2.66122H11.9154L11.4542 3.12747L11.676 3.76197L11.0585 3.44977Z" fill="#F7FCFF"/>
<path fill-rule="evenodd" clip-rule="evenodd" d="M3.95733 4.59699L3.40703 4.90918L3.5642 4.27469L3.03705 3.80844H3.72558L3.9565 3.20801L4.22728 3.80844H4.81423L4.35305 4.27469L4.5748 4.90918L3.95733 4.59699Z" fill="#F7FCFF"/>
<path fill-rule="evenodd" clip-rule="evenodd" d="M6.2033 3.94025L5.653 4.25244L5.81017 3.61795L5.28302 3.1517H5.97155L6.20247 2.55127L6.47325 3.1517H7.0602L6.59902 3.61795L6.82077 4.25244L6.2033 3.94025Z" fill="#F7FCFF"/>
<path fill-rule="evenodd" clip-rule="evenodd" d="M8.67529 3.44977L8.12498 3.76197L8.28215 3.12747L7.755 2.66122H8.44353L8.67446 2.06079L8.94524 2.66122H9.53219L9.07101 3.12747L9.29276 3.76197L8.67529 3.44977Z" fill="#F7FCFF"/>
</svg>
